Flat-ZOMG-dark/apps/symbolic/internet-mail-symbolic.svg

<svg xmlns="http://www.w3.org/2000/svg" width="16" height="16" version="1.1">
 <defs>
  <style id="current-color-scheme" type="text/css">
   .ColorScheme-Text { color:#5c616c; } .ColorScheme-Highlight { color:#367bf0; } .ColorScheme-NeutralText { color:#ffcc44; } .ColorScheme-PositiveText { color:#3db47e; } .ColorScheme-NegativeText { color:#dd4747; }
  </style>
 </defs>
 <path style="fill:currentColor" class="ColorScheme-Text" d="M 2,1 C 1,1 1,2 1,2 v 12 c 0,0 0,1 1,1 h 12 c 1,0 1,-1 1,-1 V 2 c 0,0 0,-1 -1,-1 z m 1,2 h 10 v 7 H 10 C 10,11.108 9.11,12 8,12 6.89,12 6,11.108 6,10 H 3 Z m 1,1 v 5 h 8 V 4 Z M 5,5 8,6.5 11,5 V 6 L 8,7.5 5,6 Z"/>
</svg>

<svg xmlns="http://www.w3.org/2000/svg" width="16" height="16" version="1.1">
 <path style="fill:#5c616c" d="M 4,4 V 9 H 12 V 4 Z M 5,5 8,6.5 11,5 V 6 L 8,7.5 5,6 Z"/>
 <path style="fill:#5c616c" d="M 2,1 C 1,1 1,2 1,2 V 14 C 1,14 1,15 2,15 H 14 C 15,15 15,14 15,14 V 2 C 15,2 15,1 14,1 Z M 3,3 H 13 V 10 H 10 C 10,11.108 9.11,12 8,12 6.89,12 6,11.108 6,10 H 3 Z"/>
</svg>
